X:1
T:I Have Found the Way
T:I Have Found the Way
T:Adger McDavid Pace
T:L. E. Green, 1922
T:Public Domain Courtesy of the Cyber Hymnal™
T:Public Domain Courtesy of the Cyber Hymnal™
C:Adger McDavid Pace
Z:Public Domain
Z:Courtesy of the Cyber Hymnal™
%%score ( 1 2 ) ( 3 4 )
L:1/8
Q:1/4=100
M:4/4
K:C
V:1 treble 
V:2 treble 
V:3 bass 
V:4 bass 
V:1
 [EG][EG] | [Ec]2 [Ec]2 [Ec]2 [EG]2 | [FA]>[GB] [Ac]>[FA] [EG]2 [EG][EG] | %3
w: 1.~I have|found the way That|leads to end- less day, Yon- der|
w: 2.~I will|nev- er fear, While|Je- sus is so near, I will|
w: 3.~To the|jour- ney’s end, I’ll|have a guide and friend, And no|
 [Ec]3 [Gc] [^Fe]2 [Fd]2 | [Gd]6 [FG][FG] | [Ec]2 [Fc]2 [Ec]2 [EG]2 | %6
w: in the glo- ry|land; And the|road is bright, For|
w: brave- ly meet the|foe; Hap- py|songs I’ll sing, In|
w: more in sin I’ll|roam; By the|way called straight, I’ll|
 [FA]>[GB] [Ac]>[FA] [EG]2 [Gc][Ad] | [Ge]3 [Ge] [Ec]2 [Fd]2 | [Ec]6 (3(GAB) || %9
w: Je- sus is the light, And I|hold His guid- ing|hand. * * *|
w: hon- or to the King, And to|glo- ry on- ward|go. * * *|
w: reach the gold- en gate Of the|soul’s e- ter- nal|home. * * *|
"^Refrain" c4- ([Ec][Gd]) [Ac]>[FA] | G6 (3(GAc) | e4- ec e3/2 (z/ d/) | d6 (3(GAB) | %13
w: ||||
w: I found * the way,|I * * *|have * found the *||
w: ||||
 c4- [Ec][Gd] [Ac]>[FA] | [EG][Ec-] c4 (3(GAc) | e4- [Ge][Ec] [Ge]>[Fd] | c6 E2 |] %17
w: ||||
w: way, Glo- ry hal- le-|* lu- * * * *|jah, I have found the|* way.|
w: ||||
V:2
 x2 | x8 | x8 | x8 | x8 | x8 | x8 | x8 | x8 || (EEF>F) x4 | (E>EFF E2) x2 | (GGG>G G2) ^FF x/ | %12
 (G>G^FF G2) x2 | E E F F x4 | x2 (GEGG) x2 | G G G3/2 G/ x4 | EG A/GF/ x4 |] %17
V:3
 [C,C][C,C] | [C,G,]2 [C,A,]2 [C,G,]2 [C,C]2 | [F,C]>[F,C] [F,C]>[F,C] [C,C]2 [C,C][C,C] | %3
w: |||
 [C,G,]3 [E,C] [D,A,]2 [D,C]2 | [G,B,]6 [G,B,][G,B,] | [C,C]2 [C,A,]2 [C,G,]2 [C,C]2 | %6
w: |||
 [F,C]>[F,C] [F,C]>[F,C] [C,C]2 [E,C][F,C] | [G,C]3 [G,C] [G,C]2 G,2 | [C,G,]6 z2 || %9
w: |* * * I||
 [C,G,][G,,C] [A,,B,]>[B,,A,] ([C,G,][E,C]) [F,C]>[F,C] | [C,C]>[C,C] [G,B,][G,B,] [C,C]2 z2 | %11
w: have found the way, I * have found|the glo- ry way, I|
 [C,C][C,C] [E,C]>[G,C] (CE)[A,D][A,C] x/ | [G,B,]>[G,B,] [D,C][D,C] [G,B,]2 z2 | %13
w: have found the way, I * have found|the Gos- pel way, Glo-|
 [C,G,][G,,G,][A,,B,][B,,A,] [C,G,][E,C] [F,C]>[F,C] | [C,C][C,C][E,C][G,C] [CE][CE] z2 | %15
w: ry hal- le- lu- jah, Hhal- le- lu-|jah, hal- le- lu- jah, I|
 [G,C][G,C] [G,C]>[G,C] [G,C][A,C] [G,B,]>[G,B,] | (CEC>A, G,2) x2 |] %17
w: have found the way, I’ve found the way.||
V:4
 x2 | x8 | x8 | x8 | x8 | x8 | x8 | x6 G,2 | x8 || x8 | x8 | x4 C2 x5/2 | x8 | x8 | x8 | x8 | %16
 C,6 x2 |] %17

